X:870
T:Polkett
T:efter Pelle Fors
O:Vikbolandet, Östergötland
S:efter Pelle Fors
B:Låtar efter Pelle Fors
R:Polka
Z:Björn Ek 2008-12-31
D:Erik Pekkari
M:2/4
L:1/8
K:G
%
|:B2 c2|de e/d/c|Bg g>B         |dc c/B/c|
B2 c2  |de e/d/e|ff !trill!fe/f/|gg g2  :|
%
|:bb/g/ aa/f/|gg (B/A/)B/c/|dd (c/B/)c/d/|ee d2 |
bb/g/ aa/f/  |gg (B/A/)B/c/|dd de/f/     |gg g2:|
%

(:musicend:)

(:music:)
